!!!SOCIAL_FUNCTION:	deer dance songs
!!!PDT:	1932
!!!OTL: No_63_The_Water_Bug_Wanders_Forever_Beside_the_Sea.krn
!!!REG: Southwest
!!!LANG: Non-Tone
!!!LING_GROUP: Yuman-Cochimi
**kern	**kern
*staff2	*staff1
=1-	=1-
*clefF4	*clefF4
*k[f#c#g#d#a#]	*k[f#c#g#d#a#]
*M2/4	*M2/4
2r	4r
.	4B\
=2	=2
2r	[12G#\L
.	12G#\]
.	12G#\J
.	[12d#\L
.	12d#\]
.	12B\J
=3	=3
2r	[12d#\L
.	12d#\]
.	12A#\J
.	8A#\
.	8r
=4	=4
4GG#/	4B\
4GG#/	8G#\L
.	8B\J
=5||	=5||
*M3/4	*M3/4
4GG#/	4.A#\
4GG#/	.
.	8B\
4GG#/	8A#\L
.	8B\J
=6||	=6||
*M2/4	*M2/4
4GG#/	4G#\
4GG#/	4E\
=7	=7
4GG#/	4G#\
4GG#/	8E\L
.	[8G#\J
=8	=8
4GG#/	8G#\L]
.	8E\J
4r	8E\
.	8r
=9	=9
4GG#/	4G#\
4GG#/	8E\L
.	8E\J
=10	=10
4GG#/	4G#\
4GG#/	8E\L
.	[8G#\J
=11||	=11||
*M3/4	*M3/4
4GG#/	8G#\L]
.	8E\J
4GG#/	4E\
4r	8r
.	8E\
=12	=12
4GG#/	4G#\
4GG#/	4r
4r	4r
=13||	=13||
*M2/4	*M2/4
4GG#/	4A#\
4GG#/	8r
.	8A#\
=14	=14
4GG#/	4B\
4GG#/	8A#\L
.	[8B\J
=15	=15
4GG#/	8B\L]
.	8G#\J
4GG#/	8G#\
.	8r
=16	=16
4GG#/	4B\
4GG#/	8A#\L
.	8B\J
=17!|:	=17!|:
*M3/4	*M3/4
4GG#/	8B\L
.	[8A#\J
4GG#/	8A#\L]
.	8B\J
4GG#/	8A#\L
.	8B\J
=18||	=18||
*M2/4	*M2/4
4GG#/	4G#\
4GG#/	4E\
=19	=19
4GG#/	4G#\
4GG#/	8E\L
.	[8G#\J
=20	=20
4GG#/	8G#\L]
.	8E\J
4GG#/	8E\
.	8r
=21	=21
4GG#/	4G#\
4GG#/	8E\L
.	8E\J
=22	=22
4GG#/	4G#\
4GG#/	8E\L
.	[8G#\J
=23||	=23||
*M3/4	*M3/4
4GG#/	8G#\L]
.	8E\J
4GG#/	4E\
4GG#/	4E\
=24||	=24||
*M2/4	*M2/4
4GG#/	4G#\
4r	8G#\
.	8r
=25	=25
4GG#/	4G#\
4r	4r
=26	=26
4GG#/	4d#\
4GG#/	8A#\L
.	[8d#\J
=27	=27
4GG#/	8d#\L]
.	8A#\J
4GG#/	8B\
.	8r
=28	=28
4GG#/	4d#\
4GG#/	8A#\L
.	8A#\J
==:|!	==:|!
*-	*-
